!!!!SEGMENT: pl-wtm--1000-sp-5590_szymanowski-karol--daleko-zostal-caly-swiat-op-2-nr-1.krn
!!!cenid: 19xx:64
!!!COM: Szymanowski, Karol
!!!COM-rismID: pe30106403
!!!CDT: 1882-1937
!!!CNT: Polish
!!!OTL: Daleko został cały świat Op. 2 Nr 1
!!!PDT: 1951
!!!AGN: Secular; Song
!!!YEC: Copyright 2022 Narodowy Instytut Fryderyka Chopina (https://polishscores.org)
!!!YEM: License CC-BY-4.0 (https://creativecommons.org/licenses/by/4.0)
!!!SMS-siglum: PL-Wtm
!!!SMS-shelfmark: 1000 śp 5590
!!!SMS-variant:
!!!SMS-altvar:
!!!SMS-shelfwork: W
!!!NIFC-rismSourceID: 1001193766
!!!NIFC-rismChildID: 1001193766
!!!NIFC-islandoraID: pl-wtm:55401
!!!URL-pdf-islandora: https://repozytorium.nifc.pl/islandora/object/pl-wtm%3A55401/datastream/PDF/view
!!!URL-scan: https://polish.musicsources.pl/pl/lokalizacje/galeria/druki-muzyczne/18344/2 @EN{Scan on Polish Music Sources Website} @PL{Skany w portalu Dziedzictwo Muzyki Polskiej w otwartym dostępie}
!!!IIIF:
!!!ONB-nifc:
!!!AIN: 1 feme 2 forte
!!!key: E
**kern	**kern	**dynam	**kern	**text	**dynam
*part3	*part2	*part2	*part1	*part1	*part1
*staff3	*staff2	*	*staff1	*staff1	*
*I"FORTEPIAN	*I"FORTEPIAN	*	*I"ŚPIEW	*	*
*I'P-no	*I'P-no	*	*I'Ś.	*	*
*ICklav	*ICklav	*	*ICvox	*	*
*Iforte	*Iforte	*	*Ifeme	*	*
*clefF4	*clefG2	*	*clefG2	*	*
*k[f#c#g#d#]	*k[f#c#g#d#]	*	*k[f#c#g#d#]	*	*
*E:	*E:	*	*E:	*	*
*M6/8	*M6/8	*	*M6/8	*	*
=1	=1	=1	=1	=1	=1
*	*^	*	*	*	*
!	!	!	!	!LO:TX:B:a:t=Andante	!	!
(8G#\L 8c# 8e	[2.gg#/	(>8cc#\L	pp	2.r	.	.
8G#\ 8c# 8e	.	8g#\	.	.	.	.
8G#\J) 8c# 8e	.	8cc#\J)	.	.	.	.
(8G#\L 8c# 8e	.	(>8g#\L	.	.	.	.
8G#\ 8c# 8e	.	8cc#\	.	.	.	.
8G#\J) 8c# 8e	.	8g#\J)	.	.	.	.
=2	=2	=2	=2	=2	=2	=2
!	!LO:TX:b:t=legato	!	!	!	!	!
8G#\L 8c# 8e	4.gg#/]	8cc#\L	.	4.g#/	Da-	.
8G#\ 8c# 8e	.	8g#\	.	.	.	.
8G#\J 8c# 8e	.	8cc#\J	.	.	.	.
8F##X\L 8c# 8e	4aa/	8a\L	.	4a/	-le-	.
8F##\ 8c# 8e	.	8cc#\	.	.	.	.
8F##\J 8c# 8e	8bb/)	8b\J	.	8b\	-ko	.
=3	=3	=3	=3	=3	=3	=3
8G#\L 8c# 8e	(4.gg#/	8cc#\L	.	4.g#/	zo-	.
8G#\ 8c# 8e	.	8g#\	.	.	.	.
8G#\J 8c# 8e	.	8cc#\J	.	.	.	.
8F##X\L 8c# 8e	4aa/	8a\L	.	4.a/	-stał	.
8F##\ 8c# 8e	.	8cc#\	.	.	.	.
8F##\J 8c# 8e	8bb/)	8b\J	.	.	.	.
!!LO:LB:original
=4	=4	=4	=4	=4	=4	=4
8G#\L 8c# 8e	([4.gg#/	8cc#\L	<	4.g#/	ca-	.
8G#\ 8c# 8e	.	8g#\	.	.	.	.
8G#\J 8c# 8e	.	8cc#\J	.	.	.	.
!	!LO:TX:b:t=poco cresc.	!	!	!	!	!
8F#X\L 8c# 8e	8gg#/L]	8g#\L	[	8g#/	.	.
8F#\ 8c# 8e	8aa/	8a\	.	(8a/L	-ły	.
8F#\J 8c# 8e	8ccc#/J)	8cc#\J	.	8cc#/J)	.	.
=5	=5	=5	=5	=5	=5	=5
*^	*	*	*	*	*	*
4.a:/	8F#:\L 8c#: 8e:	4.ee/ 4.eee	8aa\L	>	(4.ee^^\	świat	.
.	8F#\ 8c# 8e	.	8aa\	.	.	.	.
.	8F#\J 8c# 8e	.	8aa\J	.	.	.	.
4.r	8F#\L 8c# 8d#	4.dd#/ 4.ddd#	8aa\L	.	4dd#\)	;	.
!	!	!LO:TX:b:t=rit.	!	!	!	!	!
.	8F#\ 8c# 8d#	.	8aa\	.	.	.	.
.	8F#\J 8c# 8d#	.	8aa\J	.	8r	.	.
=6	=6	=6	=6	=6	=6	=6	=6
4.e/	8F#\L 8c#	4.a/ 4.aa	4.ee\	] <	4.e/	Wiatr,	.
.	8F#\ 8c#	.	.	.	.	.	.
.	8F#\J 8c#	.	.	.	.	.	.
4.B/	8F#\L 8c#	4b/ 4bb	4.dd#\	.	4d#/	ty-	.
.	8F#\ 8c#	.	.	.	.	.	.
.	8F#\J 8c#	8cc#/ 8ccc#	.	.	8d#/	-lko	.
!!LO:LB:original
=7	=7	=7	=7	=7	=7	=7	=7
4.e/	8E\L 8c#	[4.a/ [4.aa	4.ee\	[ <	[4.e/	wiatr	.
.	8E\ 8c#	.	.	.	.	.	.
.	8E\J 8c#	.	.	.	.	.	.
4.f#/	8D#\L 8c#	8a/L] 8aa]	8dd#\	[	8e/]	.	.
.	8D#\ 8c#	8cc#/ 8ccc#	8r	.	8d#/	po	.
.	8D#\J 8c#	8ee/J 8eee	8r	.	8e/	u-	.
=8	=8	=8	=8	=8	=8	=8	=8
4.g#:/	8D#:\L 8A#X: 8c#:	4.gg#/ 4.ggg#	4.ccc#\	mf <	4.g#/	-bo-	.
.	8D#\ 8A# 8c#	.	.	.	.	.	.
.	8D#\J 8A# 8c#	.	.	.	.	.	.
4.f##X:/	8D#:\L 8A#: 8c#:	4.ff##X/ 4.fff##X	4.ccc#\	[	4.f##X/	-czy	.
!LO:TX:a:t=rit.	!	!	!	!	!	!	!
.	8D#\ 8A# 8c#	.	.	.	.	.	.
.	8D#\J 8A# 8c#	.	.	.	.	.	.
*v	*v	*	*	*	*	*	*
=9	=9	=9	=9	=9	=9	=9
8Dn\L 8G#	4.B/ 4.b	8f#\L	ppp	2.r	.	.
8D\ 8G#	.	8f#\	.	.	.	.
8D\J 8G#	.	8f#\J	.	.	.	.
8C#\L 8G#	4c#/ 4cc#	8f#\L	<	.	.	.
8C#\ 8G#	.	8f#\	.	.	.	.
8BB\J 8G#	8dn/ 8ddn	8f#\J	[	.	.	.
!!LO:PB:g=original
=10	=10	=10	=10	=10	=10	=10
8Dn\L 8G#	(2.B/ 2.b	8f#\L	.	4.f#/	na-	.
8D\ 8G#	.	8f#\	.	.	.	.
8D\J 8G#	.	8f#\J	.	.	.	.
8D\L 8G#	.	8f#\L	.	4.f#/	-giej	.
8D\ 8G#	.	8f#\	.	.	.	.
8D\J 8G#	.	8f#\J	.	.	.	.
=11	=11	=11	=11	=11	=11	=11
8Dn\L 8G#	4.B/ 4.b	8f#\L	<	4r	.	.
8D\ 8G#	.	8f#\	.	.	.	.
8D\J 8G#	.	8f#\J	.	8r	.	.
8C#\L 8G#	4c#/ 4cc#	8f#\L	.	4.f#/	po-	.
8C#\ 8G#	.	8f#\	.	.	.	.
8BB\J 8G#	8dn/ 8ddn	8f#\J	[	.	.	.
=12	=12	=12	=12	=12	=12	=12
8Dn\L 8G#	2.B/) 2.b	8f#\L	>	4.g#/	-żół-	.
8D\ 8G#	.	8f#\	.	.	.	.
8D\J 8G#	.	8f#\J	.	.	.	.
8D\L 8G#	.	8f#\L	.	4.g#/	-kłej,	.
8D\ 8G#	.	8f#\	.	.	.	.
8D\J 8G#	.	8f#\J	.	.	.	.
!!LO:LB:original
=13	=13	=13	=13	=13	=13	=13
8D#\L 8G#	(4.B#X/ 4.b#X	8f#\L	]	2.r	.	.
8D#\ 8G#	.	8f#\	.	.	.	.
8D#\J 8G#	.	8f#\J	.	.	.	.
8C#\L 8G#	4c#/ 4cc#	8f#\L	.	.	.	.
8C#\ 8G#	.	8f#\	.	.	.	.
8BB#X\J 8G#	8d#X/ 8dd#X	8f#\J	.	.	.	.
=14	=14	=14	=14	=14	=14	=14
8D#\L 8G#	2.B#X/) 2.b#X	8f#\L	<	4r	.	.
8D#\ 8G#	.	8f#\	.	.	.	.
8D#\J 8G#	.	8f#\J	.	8g#/	po	.
8D#\L 8G#	.	8f#\L	>	4g#/	sza-	.
8D#\ 8G#	.	8f#\	.	.	.	.
8D#\J 8G#	.	8f#\J	]	8g#/	-rych	.
=15	=15	=15	=15	=15	=15	=15
8D#\L 8A	(4.B#X/ 4.b#X	8f#\L	.	[4.a/	mchach,	.
!	!	!	!LO:HP:t=dim.	!	!	!
8D#\ 8A	.	8f#\	>	.	.	.
8D#\J 8A	.	8f#\J	.	.	.	.
!	!LO:TX:b:t=e	!	!	!	!	!
8C##X\L 8A	4c##X/ 4cc##X	8f#\L	.	8a/]	.	.
8C##\ 8A	.	8f#\	.	4r	.	.
8BB#X\J 8A	8d#/ 8dd#	8f#\J	.	.	.	.
*	*v	*v	*	*	*	*
!!LO:LB:original
=16	=16	=16	=16	=16	=16
!	!LO:TX:b:t=rall.	!	!	!	!
8D#\ 8A	8B#X/ 8f# 8b	.	2.r	.	.
4D#\ 4A	4B#/ 4f# 4b	>	.	.	.
4D#\ 4A	4B#/ 4f# 4b	.	.	.	.
8D#\ 8A	[8B#/) [>8f# [8b	]]	.	.	.
=17	=17	=17	=17	=17	=17
*	*	*	*	*	*^
!	!	!	!	!	!LO:HP:b	!
2.D#\ 2.A	2.B#/] 2.f#] 2.b]	.	8ccn\L	ję-	<	mf
*	*	*	*	*	*v	*v
.	.	.	8ddn\J	.	.
.	.	.	8ffn\	-czą-	.
!	!	!	!	!	!LO:HP:b
.	.	.	8ee-X\	-ce	[ >
.	.	.	8dd-X\	szkrzy-	.
.	.	.	8cc\	-dła	.
=18	=18	=18	=18	=18	=18
8E-X\ 8A-X	8cn/ 8e-X 8ccn	p	4ccn\	włó-	.
4E-\ 4A-	4c/ 4e- 4cc	>	.	.	]
.	.	.	4cc\	-czy.	.
4E-\ 4A-	4c/ 4e- 4cc	.	.	.	.
.	.	.	4r	.	.
[8E-\ [8A-	[8c/ [8e- [8cc	]]	.	.	.
=19	=19	=19	=19	=19	=19
*	*^	*	*	*	*
2.E-\] 2.A-]	2.cc/]	8c\L] 8e-]	<	2.r	.	.
.	.	8d-X\	.	.	.	.
.	.	8fn\J	.	.	.	.
.	.	8e-X\L	[ >	.	.	.
.	.	8d-\	.	.	.	.
.	.	[8cn\J	]	.	.	.
*	*v	*v	*	*	*	*
!!LO:LB:original
=20	=20	=20	=20	=20	=20
8En\ 8A-X	8c/] 8en 8a-X 8ccn	pp	4r	.	.
4E\ 4A- 4cn	4e/ 4a- 4cc	.	.	.	.
.	.	.	8r	.	.
4E\ 4A- 4c	4e/ 4a- 4cc	.	4r	.	.
!	!	!	!	!	!LO:DY:a
8E\ 8A- 8c	8e/ [8a- 8cc	mf	8ccn\	Nie	mf
=21	=21	=21	=21	=21	=21
[<2E-X^^\ [<2A-X [2c-X	[2e-X^^/ 2a-_ [2cc-X	.	4cc-X\	przy-	.
.	.	.	4a-X/	-szła	.
8E-\L] 8A-] 8c-]	8e-/L] 8a-] 8cc-]	.	4r	.	.
8En\J 8A-X 8cn	8en/J [8a-X 8ccn	.	.	.	.
=22	=22	=22	=22	=22	=22
[2E-X\ [2A-X [2c-X	[2e-X/ 2a-_ [2cc-X	<	4cc-X\	tu-	.
!	!	!	!	!	!LO:DY:a
.	.	.	4a-X/	-taj	<
8E-\L] 8A-] 8c-]	8e-/L] 8a-] 8cc-]	[	8r	.	.
8En\J 8A-X 8cn	8en/J 8a-X 8ccn	<	8ccn\	wraz	[
=23	=23	=23	=23	=23	=23
*^	*^	*	*	*	*
4.G#X/	2.AAn\ 2.En	2.c#X/ 2.e 2.cc#X	4.g#X\	>	4.cc#X\	ze	>
!	!	!LO:TX:b:t=rit.	!	!	!	!	!
4.F#X/	.	.	4.f#X\	.	4f#X/	mną,	.
.	.	.	.	]]	8r	.	]]
*v	*v	*	*	*	*	*	*
*	*v	*v	*	*	*	*
!!LO:PB:g=original
=24||	=24||	=24||	=24||	=24||	=24||
*M2/4	*M2/4	*	*M2/4	*	*
!LO:TX:a:t=ten.	!LO:TX:a:t=ten.	!	!	!	!
!LO:N:vis=2.	!LO:N:vis=2.	!	!	!	!
2DDn/ 2GG# 2Dn	2F#X/ 2c#X 2f#X	] <	8r	.	.
.	.	.	4f#X/	ze	.
.	.	[	8f#/	mną	.
=25	=25	=25	=25	=25	=25
!LO:TX:a:t=ten.	!LO:TX:a:t=ten.	!	!	!	!
!LO:N:vis=2.	!LO:N:vis=2.	!	!	!	!
2DD#X/ 2GG# 2D#X	2F#/ 2B#X 2f#	>]	2f#/	wraz	.
=26	=26	=26	=26	=26	=26
*	*^	*	*	*	*
!	!LO:TX:a:t=ten.	!	!	!	!	!
!LO:TX:a:t=ten.	!LO:N:vis=4.	!	!	!	!	!
!LO:N:vis=2.	!LO:N:vis=2.	!	!	!	!	!
2DDn/ 2AA 2Dn	2F#/ 2f#	4d#\	<	8e/	pa-	.
.	.	.	.	8f#/	-mięć	.
!	!LO:N:vis=4.	!	!	!	!	!
.	.	4c#\	.	8r	.	.
.	.	.	[	8f#/	ni	.
*	*v	*v	*	*	*	*
=27||	=27||	=27||	=27||	=27||	=27||
*M6/8	*M6/8	*	*M6/8	*	*
!LO:TX:a:t=ten.	!LO:TX:a:t=ten.	!	!	!	!
2.DD#X/ 2.GG# 2.D#X	2.F#/ 2.B#X 2.f#	.	[4.f#/	myśl	.
.	.	.	4f#/]	.	.
.	.	.	8f#/	ni-	.
=28	=28	=28	=28	=28	=28
!	!LO:TX:b:t=rall.	!	!	!	!
!LO:TX:a:t=ten.	!LO:TX:a:t=ten.	!	!LO:TX:a:t=rall.	!	!
2.CC#/ 2.GG# 2.E	2.G#/ 2.c# 2.g#	.	4.g#/	-czy	.
.	.	.	4g#/	.	.
.	.	.	8r	.	.
!!LO:LB:original
=29	=29	=29	=29	=29	=29
*	*^	*	*	*	*
!	!LO:TX:b:t=a tempo	!	!	!LO:TX:B:a:t=a tempo	!	!
4.CC#/ 4.GG# 4.E	(4.G#/ 4.c# 4.g#	4r	.	4.g#/	tyl-	.
.	.	4.e\	.	.	.	.
!	!LO:TX:b:t=molto	!	!	!	!	!
4.FF##X/ 4.C# 4.E	4A/ 4a	.	.	4a/	-ko	.
.	8B/) 8b	8ryy	.	8b\	tę-	.
=30	=30	=30	=30	=30	=30	=30
4.CC#/ 4.GG# 4.E	(4.G#/ 4.c# 4.g#	4r	<	4.g#/	-skno-	.
.	.	4.e\	.	.	.	.
4.FF##X/ 4.C# 4.E	4A/ 4a	.	.	4a/	-ta	.
.	8B/) 8b	8ryy	[	8b\	co	.
=31	=31	=31	=31	=31	=31	=31
4.F#X\ 4.c# 4.e	4.cc#/ 4.ee	4a\ 4aa	<	[4.cc#\	du-	.
.	.	8b\ 8bb	.	.	.	.
4.Gn\ 4.c# 4.e	4.a\ 4.cc# 4.ee 4.aa	8ryy	.	4cc#\]	.	.
.	.	4ryy	.	.	.	.
.	.	.	[	8cc#\	-szę	.
*clefG2	*	*	*	*	*	*
=32	=32	=32	=32	=32	=32	=32
!	!	!	!	!LO:TX:t=P:problem=dolny dźwięk w nawiasie	!	!
2.Gn:/ 2.c#: 2.e: 2.a:	(<4ee/ 4ccc#	2.aa\	ff	2.cc#\ 2.aa	rwie!	.
.	8ff#/ 8fff#	.	.	.	.	.
.	4.ee/) 4.eee	.	.	.	.	.
!!LO:LB:original
*clefF4	*	*	*	*	*	*
=33;<	=33;	=33	=33	=33;	=33	=33
8G#X\L 8c# 8e	(4.g#/ 4.gg#	4.cc#\	pp <	2.r	.	.
8G#\ 8c# 8e	.	.	.	.	.	.
8G#\J 8c# 8e	.	.	.	.	.	.
8F##X\L 8c# 8e	4a/ 4aa	4.ee\	.	.	.	.
8F##\ 8c# 8e	.	.	.	.	.	.
8F##\J 8c# 8e	8a/ 8aa	.	.	.	.	.
=34	=34	=34	=34	=34	=34	=34
8G#\L 8c# 8e	4.g#/ 4.gg#	4.cc#\	.	4.g#/	tę-	.
8G#\ 8c# 8e	.	.	.	.	.	.
8G#\J 8c# 8e	.	.	.	.	.	.
8G#\L 8c# 8f#	4a/ 4aa	4.ee\	.	4a/	-skno-	.
8G#\ 8c# 8f#	.	.	.	.	.	.
8G#\J 8c# 8f#	8cc#/) 8ccc#	.	[	8a/	-ta	.
*	*v	*v	*	*	*	*
=35	=35	=35	=35	=35	=35
!	!LO:TX:b:i:t=dim. e rall	!	!	!	!
8GGG#/ 8GG#	(4.ee\ 4.aa 4.eee	>	16%3a/	co	.
8A\L 8B#X 8e	.	.	.	.	.
.	.	.	16%3a/	za-	.
8A\J 8B# 8e	.	.	.	.	.
8r	4b#X\) 4ff# 4aa 4ddd#	.	16%3a/	-bi-	.
8G#\ 8B# 8f#	.	.	.	.	.
.	.	.	16%3a/	-ja.	.
8r	8r	]]	.	.	.
=36;<	=36;	=36	=36;	=36	=36
*	*^	*	*	*	*
!	!LO:TX:B:a:t=a tempo	!	!	!	!	!
4.G#\ 4.Bn	(4.g#/	4.e\	< p	2.r	.	.
4.F#\ 4.B	4a/	4.d#\	.	.	.	.
.	8b/)	.	.	.	.	.
!!LO:LB:original
=37	=37	=37	=37	=37	=37	=37
4.E\ 4.B	(4.g#/	4.e\	.	2.r	.	.
4.Dn\ 4.G#	4a/	4.f#\	.	.	.	.
.	8b/	.	[	.	.	.
=38	=38	=38	=38	=38	=38	=38
4.C#\ 4.G#	4.cc#/	4.e\	<	2.r	.	.
4.BB\ 4.B	4dd#/	4.d#\ 4.g#	.	.	.	.
.	8ee/)	.	[	.	.	.
*	*v	*v	*	*	*	*
=39	=39	=39	=39	=39	=39
[8qqAA/L	.	.	.	.	.
[8qqD#/	[<8qqf#\L	<	.	.	.
[8qqF#/	[<8qqcc#\	.	.	.	.
!LO:TX:a:t=ten	!LO:TX:a:t=ten	!	!	!	!
[>8qqc#/J	[>8qqff#\J	.	.	.	.
2.AA\] 2.D#] 2.F#] 2.c#]	2.f#\] 2.cc#] 2.ff#]	[[	2.r	.	.
=40	=40	=40	=40	=40	=40
[8qqGG#/L	.	.	.	.	.
*	*^	*	*	*	*
[8qqD#/	.	8qqd#\L	.	.	.	.
[8qqG#/	.	[<8qqg#\	.	.	.	.
!	!LO:TX:i:b:t=molto rall.	!	!	!	!	!
[>8qqB#X/J	.	[8qqdd#\J	.	.	.	.
2.GG#\] 2.D#] 2.G#] 2.B#]	(4.g#/] 4.gg#	2.dd#\]	.	2.r	.	.
.	4a/ 4aa	.	.	.	.	.
.	8b/ 8bb	.	.	.	.	.
*	*v	*v	*	*	*	*
=41	=41	=41	=41	=41	=41
2.r;	2.g#;\) 2.gg#	ppp	2.r;	.	.
==	==	==	==	==	==
*-	*-	*-	*-	*-	*-
!!!system-decoration: s1{(s2,s3)}
!!!RDF**kern: > = above
!!!RDF**kern: < = below
!!!ENC: Berenika Jozajtis
!!!END: 2023-08-28
!!!ENC: Leszek Kubiak
!!!END: 2023-09-26
